!!!OTL: Der Jaeger im Tannenholz Es wollt ein Jaeger jagen
!!!ARE: Europa, Mitteleuropa, Deutschland (BRD), Niedersachsen, Hadeln, Ottendorf
!!!YOR: 7, S. 170
!!    1929 aufgezeichnet
!!!SCT: Q0151B
!!!YEM: Copyright 1995, estate of Helmut Schaffrath.
**kern
*ICvox
*Ivox
*M6/8
*k[f#c#]
*D:
{8g
=1
4f#
8g
4g
8f#
=2
4.f#
4e}
{8a
=3
4b
8a
4e
8g
=4
4.f#
8r}
{8d
8d
=5
8d
8d
8f#
4a
8dd
=6
4.ff#
4dd}
{8cc#
=7
4b
16a
16a
4a
8g
=8
4.f#
4r}
==
!!!AGN: Ballade, abgewiesener Freier, Abschied
!!!ONB: ESAC (Essen Associative Code) Database: BALLADE
!!!AMT: compound duple
!!!AIN: vox
!!!EED: Helmut Schaffrath
!!!EEV: 1.0
*-
